assets/Bow and arrow/Flat/bow_and_arrow_flat.svg

<svg width="32" height="32" viewBox="0 0 32 32" fill="none" xmlns="http://www.w3.org/2000/svg">
<path d="M2.525 22.9386L5.505 19.9586C5.755 19.6986 6.095 19.5386 6.455 19.4986L11.775 18.7886L8.99492 22.6507L5.075 25.4886C4.365 26.1886 3.225 26.1886 2.525 25.4886C1.825 24.7786 1.825 23.6386 2.525 22.9386Z" fill="#635994"/>
<path d="M8.99492 29.4685L11.9749 26.4885C12.2349 26.2285 12.3949 25.8985 12.4349 25.5385L13.1449 20.2185L9.28867 23.0539L6.44492 26.9185C5.74492 27.6285 5.74492 28.7685 6.44492 29.4685C7.15492 30.1685 8.29492 30.1685 8.99492 29.4685Z" fill="#635994"/>
<path d="M23.8229 6.73645L25.2371 6.84396V8.15066L6.55208 26.8357C6.16155 27.2262 5.52839 27.2262 5.13786 26.8357C4.74734 26.4451 4.74734 25.812 5.13786 25.4214L23.8229 6.73645Z" fill="#F3AD61"/>
<path d="M17.585 6.38853V6.37853C15.975 5.92853 14.255 5.88853 12.565 6.27853C10.7472 6.70931 8.87731 6.30873 7.41595 5.2047L5.73111 6.38853L4.65064 7.97001C7.08481 10.0169 10.316 10.8007 13.455 10.0685C14.495 9.82853 15.545 9.85853 16.525 10.1285L18.0597 8.5321L17.555 6.38853H17.585Z" fill="#7D4533"/>
<path d="M3.9187 7.28774C3.23596 6.52309 3.26141 5.34251 3.99505 4.61853C4.72851 3.89472 5.89971 3.86945 6.66374 4.5427L5.47533 6.27853L3.9187 7.28774Z" fill="#7D4533"/>
<path d="M25.335 13.6185L22.9365 13.1702L21.695 14.9585C22.105 16.0785 22.195 17.3085 21.905 18.5285C21.1804 21.635 21.9405 24.8316 23.9401 27.2568L25.695 26.1809L26.7155 24.4906C25.6608 23.0409 25.2802 21.2046 25.695 19.4185C26.155 17.4385 26.015 15.4385 25.335 13.6185Z" fill="#7D4533"/>
<path d="M27.3682 25.2519L25.695 26.5049L24.6138 27.9973C25.3744 28.7485 26.5979 28.7456 27.355 27.9885C28.1105 27.233 28.115 26.0129 27.3682 25.2519Z" fill="#7D4533"/>
<path d="M25.335 13.6185L21.685 14.9585C21.375 14.0985 20.885 13.3385 20.245 12.6985L19.275 11.7285C18.515 10.9685 17.565 10.4185 16.525 10.1285L17.555 6.37854C19.245 6.83854 20.785 7.73854 22.025 8.97854L22.995 9.94854C24.035 10.9985 24.825 12.2285 25.335 13.6185Z" fill="#FCD53F"/>
<path d="M29.395 2.01858L22.055 3.98858C21.715 4.07858 21.595 4.50858 21.845 4.75858L27.225 10.1386C27.475 10.3886 27.905 10.2786 27.995 9.92858L29.965 2.58858C30.055 2.23858 29.735 1.91858 29.395 2.01858Z" fill="#D3D3D3"/>
<path d="M4.49857 8.12208C4.30331 8.31734 3.98673 8.31734 3.79147 8.12208C3.5962 7.92682 3.5962 7.61023 3.79147 7.41497L6.82147 4.38497C7.01673 4.18971 7.33331 4.18971 7.52857 4.38497C7.72383 4.58023 7.72383 4.89682 7.52857 5.09208L4.49857 8.12208Z" fill="#D3D3D3"/>
<path d="M4.72688 8.0335C5.05152 8.30116 5.38998 8.5466 5.74019 8.76925L6.02191 24.5374L5.13787 25.4214C5.10177 25.4575 5.06901 25.4957 5.03958 25.5356L4.72688 8.0335Z" fill="#D3D3D3"/>
<path d="M23.1966 26.2314L7.45341 25.9343L6.55208 26.8357C6.52324 26.8645 6.49307 26.8912 6.46177 26.9158L23.9307 27.2454C23.6636 26.9205 23.4187 26.5818 23.1966 26.2314Z" fill="#D3D3D3"/>
<path d="M26.8221 24.3844C27.0176 24.1894 27.3342 24.19 27.5292 24.3856C27.7241 24.5811 27.7236 24.8977 27.528 25.0927L24.498 28.1127C24.3024 28.3076 23.9858 28.3071 23.7909 28.1115C23.5959 27.9159 23.5965 27.5993 23.7921 27.4044L26.8221 24.3844Z" fill="#D3D3D3"/>
</svg>

<svg xmlns="http://www.w3.org/2000/svg" width="32" height="32" fill="none"><path fill="#635994" d="m2.525 22.939 2.98-2.98c.25-.26.59-.42.95-.46l5.32-.71-2.78 3.862-3.92 2.838c-.71.7-1.85.7-2.55 0-.7-.71-.7-1.85 0-2.55ZM8.995 29.468l2.98-2.98c.26-.26.42-.59.46-.95l.71-5.32-3.856 2.836-2.844 3.865c-.7.71-.7 1.85 0 2.55.71.7 1.85.7 2.55 0Z"/><path fill="#F3AD61" d="m23.823 6.736 1.414.108v1.307L6.552 26.836a1 1 0 0 1-1.414-1.415L23.823 6.736Z"/><path fill="#7D4533" d="M17.585 6.389v-.01c-1.61-.45-3.33-.49-5.02-.1a6.15 6.15 0 0 1-5.149-1.074L5.73 6.389 4.651 7.97a10.063 10.063 0 0 0 8.804 2.099c1.04-.24 2.09-.21 3.07.06l1.535-1.597-.505-2.143h.03ZM3.919 7.288a1.943 1.943 0 0 1 .076-2.67 1.962 1.962 0 0 1 2.669-.075L5.475 6.279 3.92 7.288ZM25.335 13.618l-2.399-.448-1.241 1.789c.41 1.12.5 2.35.21 3.57a10.062 10.062 0 0 0 2.035 8.728l1.755-1.076 1.02-1.69a6.203 6.203 0 0 1-1.02-5.072c.46-1.98.32-3.98-.36-5.8ZM27.368 25.252l-1.673 1.253-1.081 1.492a1.943 1.943 0 0 0 2.754-2.745Z"/><path fill="#FCD53F" d="m25.335 13.618-3.65 1.34c-.31-.86-.8-1.62-1.44-2.26l-.97-.97a6.27 6.27 0 0 0-2.75-1.6l1.03-3.75c1.69.46 3.23 1.36 4.47 2.6l.97.97c1.04 1.05 1.83 2.28 2.34 3.67Z"/><path fill="#D3D3D3" d="m29.395 2.019-7.34 1.97c-.34.09-.46.52-.21.77l5.38 5.38c.25.25.68.14.77-.21l1.97-7.34c.09-.35-.23-.67-.57-.57ZM4.499 8.122a.5.5 0 1 1-.708-.707l3.03-3.03a.5.5 0 1 1 .708.707l-3.03 3.03ZM4.727 8.034c.325.267.663.513 1.013.735l.282 15.768-.884.884a1.006 1.006 0 0 0-.098.115L4.727 8.033ZM23.197 26.231l-15.744-.297-.9.902a1.018 1.018 0 0 1-.091.08l17.469.33a10.171 10.171 0 0 1-.734-1.015ZM26.822 24.384a.5.5 0 1 1 .706.709l-3.03 3.02a.5.5 0 0 1-.706-.709l3.03-3.02Z"/></svg>
